Obsidian-SemiLight/actions/22s/im-user-offline.svg

<svg viewBox="0 0 22 22" xmlns="http://www.w3.org/2000/svg"><path d="m11 3a3.9999902 4.0000296 0 0 0 -4 4 3.9999902 4.0000296 0 0 0 4 4 3.9999902 4.0000296 0 0 0 4-4 3.9999902 4.0000296 0 0 0 -4-4zm0 1a3 3.0000296 0 0 1 3 3 3 3.0000296 0 0 1 -3 3 3 3.0000296 0 0 1 -3-3 3 3.0000296 0 0 1 3-3zm0 8a7.9999504 8.0000296 0 0 0 -7.9277344 7h1.0078125a6.9999604 7.0000296 0 0 1 6.9199219-6 6.9999604 7.0000296 0 0 1 1 .080078v-1.009766a7.9999504 8.0000296 0 0 0 -1-.070312zm4.5 0c-1.932997 0-3.5 1.567003-3.5 3.5s1.567003 3.5 3.5 3.5 3.5-1.567003 3.5-3.5-1.567003-3.5-3.5-3.5zm-2.5 3h5v1h-5z" fill="#4d4d4d" fill-opacity=".5"/><path d="m13 15v1h5v-1z" fill="#fff"/></svg>

<svg xmlns="http://www.w3.org/2000/svg" viewBox="0 0 22 22">
  <defs id="defs3051">
    <style type="text/css" id="current-color-scheme">
      .ColorScheme-Text {
        color:#4d4d4d;
      }
      </style>
  </defs>
 <path 
     style="fill:currentColor;fill-opacity:0.5;stroke:none" 
     d="M 11 3 A 3.9999902 4.0000296 0 0 0 7 7 A 3.9999902 4.0000296 0 0 0 11 11 A 3.9999902 4.0000296 0 0 0 15 7 A 3.9999902 4.0000296 0 0 0 11 3 z M 11 4 A 3 3.0000296 0 0 1 14 7 A 3 3.0000296 0 0 1 11 10 A 3 3.0000296 0 0 1 8 7 A 3 3.0000296 0 0 1 11 4 z M 11 12 A 7.9999504 8.0000296 0 0 0 3.0722656 19 L 4.0800781 19 A 6.9999604 7.0000296 0 0 1 11 13 A 6.9999604 7.0000296 0 0 1 12 13.080078 L 12 12.070312 A 7.9999504 8.0000296 0 0 0 11 12 z M 15.5 12 C 13.567003 12 12 13.567003 12 15.5 C 12 17.432997 13.567003 19 15.5 19 C 17.432997 19 19 17.432997 19 15.5 C 19 13.567003 17.432997 12 15.5 12 z M 13 15 L 18 15 L 18 16 L 13 16 L 13 15 z "
     class="ColorScheme-Text"
     />
    <path
       style="fill:#ffffff;fill-opacity:1;stroke:none"
       d="M 13 15 L 13 16 L 18 16 L 18 15 L 13 15 z " />
</svg>
